X:1216
L:1/8
M:4/4
K:G
"^Slow" g | B<B TB>A G<gB>g | a>A B>G E<e e>f | g>ab<a (g<e)g>e | d>A B>G E<e (ee/) :: f/ | 
 g>ab>a g<b b>g | a>gb>g Ta>g e2 | d>bg>b e<g B2 | d>A B>G E<e e :: g | (TB>G)(TA>G) (TB>G) A<g | 
 (TB>G) A>B e<ee>f | g>bTa>g Te>d B<g | d>A B>G E<e e :: f/ | g>G b>Ga>Gb>G | a>G b>g (Ta>g) e2 | 
 d>bb>a (g/e/d) B2 | d>A B>G E<e e :|

